Papirus/32x32/apps/gst.svg

<svg width="32" height="32" version="1.1" xmlns="http://www.w3.org/2000/svg">
 <rect x="2" y="4" width="28" height="26" rx="2.5452001" ry="2.737" style="opacity:.2"/>
 <rect x="2" y="3" width="28" height="26" rx="2.5452001" ry="2.737" style="fill:#d63f36"/>
 <rect x="10" y="11" width="12" height="12" rx="1.3329999" ry="1.3329999" style="opacity:.2"/>
 <path d="m12 6v7h-5v-3c-5.52e-5 -0.5522619-0.4477381-0.9999448-1-1h-2c-0.5522847 0-1 0.4477153-1 1 0 0.552285 0.4477153 1 1 1h1v3c5.52e-5 0.552262 0.4477381 0.999945 1 1h6v-1.408203h1.955078v-7.591797zm3.044922 0v7.591797h1.955078v-7.591797zm3 0v7.591797h1.955078v1.408203h8c0.552262-5.5e-5 0.999945-0.447738 1-1v-4c0-0.5522847-0.447715-1-1-1s-1 0.4477153-1 1v3h-7v-7zm-14.044922 10c-0.5522847 0-1 0.447715-1 1s0.4477153 1 1 1h8v-2zm16 0v2h8c0.552285 0 1-0.447715 1-1s-0.447715-1-1-1zm-16 3c-0.5522619 5.5e-5 -0.9999448 0.447738-1 1v4c0 0.552285 0.4477153 1 1 1s1-0.447715 1-1v-3h7v7h1.955078l0.044922-8.000203-2 2.03e-4v-1zm16 0v1h-2l0.04492 8h1.95508v-8h2v1h3v3c5.5e-5 0.552262 0.447738 0.999945 1 1h2c0.552285 0 1-0.447715 1-1s-0.447715-1-1-1h-1v-3c-5.5e-5 -0.552262-0.447738-0.999945-1-1zm-5 1 0.04492 8h1.95508v-8z" style="opacity:.2"/>
 <rect x="10" y="10" width="12" height="12" rx="1.333" ry="1.333" style="fill:#7ea193"/>
 <path d="m12 5v7h-5v-3c-5.52e-5 -0.5522619-0.4477381-0.9999448-1-1h-2v2h1v3c5.52e-5 0.552262 0.4477381 0.999945 1 1h6v-1.408203h1.955078v-7.591797zm3.044922 0v7.591797h1.955078v-7.591797zm3 0v7.591797h1.955078v1.408203h8c0.552262-5.5e-5 0.999945-0.447738 1-1v-4h-2v3h-7v-7zm-14.044922 10v2h8v-2zm16 0v2h8v-2zm-16 3c-0.5522619 5.5e-5 -0.9999448 0.447738-1 1v4h2v-3h7v7h1.955078v-7.591797h-1.955078v-1.408203zm16 0v1.408203h-1.955078v7.591797h1.955078v-7h5v3c5.5e-5 0.552262 0.447738 0.999945 1 1h2v-2h-1v-3c-5.5e-5 -0.552262-0.447738-0.999945-1-1zm-4.955078 1.408203v7.591797h1.955078v-7.591797z" style="fill:#569c81"/>
 <path d="m29 9c0 0.5522847-0.447715 1-1 1s-1-0.4477153-1-1 0.447715-1 1-1 1 0.4477153 1 1z" style="fill:#e4e4e4"/>
 <path d="m29 23a1 1 0 0 1-1 1 1 1 0 0 1-1-1 1 1 0 0 1 1-1 1 1 0 0 1 1 1z" style="fill:#e4e4e4"/>
 <path d="m5 16a1 1 0 0 1-1 1 1 1 0 0 1-1-1 1 1 0 0 1 1-1 1 1 0 0 1 1 1z" style="fill:#81e9c0"/>
 <path d="m29 16a1 1 0 0 1-1 1 1 1 0 0 1-1-1 1 1 0 0 1 1-1 1 1 0 0 1 1 1z" style="fill:#febd78"/>
 <path d="m5 9a1 1 0 0 1-1 1 1 1 0 0 1-1-1 1 1 0 0 1 1-1 1 1 0 0 1 1 1z" style="fill:#efa0d7"/>
 <path d="m5 23a1 1 0 0 1-1 1 1 1 0 0 1-1-1 1 1 0 0 1 1-1 1 1 0 0 1 1 1z" style="fill:#aeb4f1"/>
 <path d="m12 8v4h-4v2h4v1h-4v2h4v1h-4v2h4v4h2v-4h1v4h2v-4h1v4h2v-4h4v-2h-4v-1h4v-2h-4v-1h4v-2h-4v-4h-2v4h-1v-4h-2v4h-1v-4h-2zm2 6h1v1h-1v-1zm3 0h1v1h-1v-1zm-3 3h1v1h-1v-1zm3 0h1v1h-1v-1z" style="fill:#fbd14e"/>
 <rect x="11" y="12" width="10" height="10" style="opacity:.2"/>
 <rect x="11" y="11" width="10" height="10" style="fill:#414141"/>
 <path d="M 4.5447917,3 C 3.1346098,3 2,4.2201176 2,5.7363281 v 1 C 2,5.2201176 3.1346098,4 4.5447917,4 H 27.455209 C 28.865391,4 30,5.2201176 30,6.7363281 v -1 C 30,4.2201176 28.865391,3 27.455209,3 Z" style="fill:#ffffff;opacity:.2"/>
 <rect x="11" y="11" width="10" height="1" style="fill:#fdfdfd;opacity:.2"/>
</svg>

<svg xmlns="http://www.w3.org/2000/svg" width="32" height="32" version="1.1">
 <rect style="opacity:0.2" width="28" height="26" x="2" y="4" rx="3" ry="3"/>
 <rect style="fill:#d63f36" width="28" height="26" x="2" y="3" rx="3" ry="3"/>
 <rect style="opacity:0.2" width="12" height="12" x="10" y="11" rx="1.5" ry="1.5"/>
 <rect style="fill:#7ea193" width="12" height="12" x="10" y="10" rx="1.5" ry="1.5"/>
 <path style="opacity:0.2" d="M 12,6 V 13 H 7 V 10 C 7,9 6,9 6,9 H 4 C 4,9 2.9,9.1 3,10 3.1,10.9 4,11 4,11 H 5 V 14 C 5,14 5,15 6,15 H 12 V 13.6 H 14 V 6 Z M 15,6 V 13.6 H 17 V 6 Z M 18,6 V 13.6 H 20 V 15 H 28 C 29,15 29,14 29,14 V 10 C 29,10 29,9 28,9 27,9 27,10 27,10 V 13 H 20 V 6 Z M 4,16 C 4,16 3,16 3,17 3,18 4,18 4,18 H 12 V 16 Z M 20,16 V 18 H 28 C 28,18 29,18 29,17 29,16 28,16 28,16 Z M 4,19 C 3,19 3,20 3,20 V 24 C 3,24 3,25 4,25 5,25 5,24 5,24 V 21 H 12 V 28 H 14 V 20.4 H 12 V 19 Z M 20,19 V 20.4 H 18 V 28 H 20 V 21 H 25 V 24 C 25,25 26,25 26,25 H 28 C 28,25 29,25 29,24 29,23 28,23 28,23 H 27 V 20 C 27,20 27,19 26,19 Z M 15,20.4 V 28 H 17 V 20.4 Z"/>
 <path style="fill:#569c81" d="M 12,5 V 12 H 7 V 9 C 7,8 6,8 6,8 H 4 V 10 H 5 V 13 C 5,13 5,14 6,14 H 12 V 12.6 H 14 V 5 Z M 15,5 V 12.6 H 17 V 5 Z M 18,5 V 12.6 H 20 V 14 H 28 C 29,14 29,13 29,13 V 9 H 27 V 12 H 20 V 5 Z M 4,15 V 17 H 12 V 15 Z M 20,15 V 17 H 28 V 15 Z M 4,18 C 3,18 3,19 3,19 V 23 H 5 V 20 H 12 V 27 H 14 V 19.4 H 12 V 18 Z M 20,18 V 19.4 H 18 V 27 H 20 V 20 H 25 V 23 C 25,24 26,24 26,24 H 28 V 22 H 27 V 19 C 27,19 27,18 26,18 Z M 15,19.4 V 27 H 17 V 19.4 Z"/>
 <path style="fill:#fbd14e" d="m12 8v4h-4v2h4v1h-4v2h4v1h-4v2h4v4h2v-4h1v4h2v-4h1v4h2v-4h4v-2h-4v-1h4v-2h-4v-1h4v-2h-4v-4h-2v4h-1v-4h-2v4h-1v-4h-2zm2 6h1v1h-1v-1zm3 0h1v1h-1v-1zm-3 3h1v1h-1v-1zm3 0h1v1h-1v-1z"/>
 <rect style="opacity:0.2" width="10" height="10" x="11" y="12"/>
 <rect style="fill:#414141" width="10" height="10" x="11" y="11"/>
 <circle style="fill:#efa0d7" cx="4" cy="9" r="1"/>
 <circle style="fill:#81e9c0" cx="4" cy="16" r="1"/>
 <circle style="fill:#aeb4f1" cx="4" cy="23" r="1"/>
 <circle style="fill:#e4e4e4" cx="28" cy="23" r="1"/>
 <circle style="fill:#febd78" cx="28" cy="16" r="1"/>
 <circle style="fill:#e4e4e4" cx="28" cy="9" r="1"/>
 <path style="fill:#ffffff;opacity:0.1" d="M 5 3 C 3.338 3 2 4.338 2 6 L 2 7 C 2 5.338 3.338 4 5 4 L 27 4 C 28.662 4 30 5.338 30 7 L 30 6 C 30 4.338 28.662 3 27 3 L 5 3 z"/>
 <rect style="fill:#ffffff;opacity:0.1" width="10" height="1" x="11" y="11"/>
</svg>
